fs/window_multiple_16_filled.svg

<svg viewBox="0 0 16 16" fill="none" xmlns="http://www.w3.org/2000/svg" height="1em" width="1em">
  <path d="M4.5 2C3.11929 2 2 3.11929 2 4.5V9.5C2 10.8807 3.11929 12 4.5 12H9.5C10.8807 12 12 10.8807 12 9.5V4.5C12 3.11929 10.8807 2 9.5 2H4.5ZM3 5H11V9.5C11 10.3284 10.3284 11 9.5 11H4.5C3.67157 11 3 10.3284 3 9.5V5ZM6.50018 13.9999C5.68227 13.9999 4.9561 13.6072 4.5 12.9999H10.0002C11.657 12.9999 13.0002 11.6568 13.0002 9.99994V4.49976C13.6074 4.95586 14.0002 5.68203 14.0002 6.49994V9.99994C14.0002 12.2091 12.2093 13.9999 10.0002 13.9999H6.50018Z" fill="#212121"/>
</svg>

<svg viewBox="0 0 16 16" fill="none" xmlns="http://www.w3.org/2000/svg" height="1em" width="1em">
  <path d="M4.5 2A2.5 2.5 0 0 0 2 4.5v5A2.5 2.5 0 0 0 4.5 12h5A2.5 2.5 0 0 0 12 9.5v-5A2.5 2.5 0 0 0 9.5 2h-5ZM3 5h8v4.5A1.5 1.5 0 0 1 9.5 11h-5A1.5 1.5 0 0 1 3 9.5V5Zm3.5 9a2.496 2.496 0 0 1-2-1H10a3 3 0 0 0 3-3V4.5c.607.456 1 1.182 1 2V10a4 4 0 0 1-4 4H6.5Z" fill="#212121"/>
</svg>
